tools/download-figma-icons/icons/solid/press.svg

<svg width="24" height="24" viewBox="0 0 24 24" fill="none" xmlns="http://www.w3.org/2000/svg">
<path fill-rule="evenodd" clip-rule="evenodd" d="M20.25 7.5H8.25C7.8375 7.5 7.5 7.1625 7.5 6.75C7.5 6.3375 7.8375 6 8.25 6H20.25C20.6625 6 21 6.3375 21 6.75C21 7.1625 20.6625 7.5 20.25 7.5ZM21 15.75C21 16.1625 20.6625 16.5 20.25 16.5H16.5C16.0875 16.5 15.75 16.1625 15.75 15.75V9.75C15.75 9.3375 16.0875 9 16.5 9H20.25C20.6625 9 21 9.3375 21 9.75V15.75ZM13.5 12H8.25C7.8375 12 7.5 11.6625 7.5 11.25C7.5 10.8375 7.8375 10.5 8.25 10.5H13.5C13.9125 10.5 14.25 10.8375 14.25 11.25C14.25 11.6625 13.9125 12 13.5 12ZM13.5 15H8.25C7.8375 15 7.5 14.6625 7.5 14.25C7.5 13.8375 7.8375 13.5 8.25 13.5H13.5C13.9125 13.5 14.25 13.8375 14.25 14.25C14.25 14.6625 13.9125 15 13.5 15ZM4.5 19.515C4.5 20.34 3.825 21.015 3 21.015C2.9775 21.015 2.9625 21.0225 2.9475 21.0225C2.925 21.0225 2.91 21.015 2.895 21.015C2.1 21.015 1.5 20.37 1.5 19.515V10.5H4.5V19.515ZM23.7825 1.7175C23.64 1.5825 23.445 1.5 23.25 1.5L5.25 1.515C4.8375 1.515 4.5 1.8525 4.5 2.265V9H0.75C0.3375 9 0 9.3375 0 9.75V19.515C0 21.195 1.26675 22.515 2.895 22.515C2.91 22.515 2.925 22.5075 2.9475 22.5C2.9625 22.5075 2.9775 22.515 3 22.515H21C22.6575 22.515 24 21.165 24 19.515V2.25C24 2.0475 23.9175 1.86 23.7825 1.7175Z" fill="black"/>
</svg>

<svg xmlns="http://www.w3.org/2000/svg" width="24" height="24" fill="none" viewBox="0 0 24 24"><path fill="currentColor" fill-rule="evenodd" d="M20.25 7.5h-12a.75.75 0 0 1-.75-.75c0-.412.338-.75.75-.75h12c.413 0 .75.338.75.75s-.337.75-.75.75m.75 8.25c0 .413-.337.75-.75.75H16.5a.75.75 0 0 1-.75-.75v-6c0-.412.337-.75.75-.75h3.75c.413 0 .75.338.75.75zM13.5 12H8.25a.75.75 0 0 1-.75-.75c0-.412.338-.75.75-.75h5.25c.412 0 .75.338.75.75s-.338.75-.75.75m0 3H8.25a.75.75 0 0 1-.75-.75c0-.412.338-.75.75-.75h5.25c.412 0 .75.338.75.75s-.338.75-.75.75m-9 4.515c0 .825-.675 1.5-1.5 1.5-.022 0-.038.008-.053.008-.022 0-.037-.008-.052-.008-.795 0-1.395-.645-1.395-1.5V10.5h3zM23.783 1.718a.8.8 0 0 0-.533-.218l-18 .015a.75.75 0 0 0-.75.75V9H.75a.75.75 0 0 0-.75.75v9.765c0 1.68 1.267 3 2.895 3 .015 0 .03-.008.052-.015.015.008.03.015.053.015h18c1.657 0 3-1.35 3-3V2.25a.78.78 0 0 0-.218-.532" clip-rule="evenodd"/></svg>
